!!!COM: Hugo Wolf
!!!CNT: Deutscher
!!!TXO: Deutsche 
!!!OTL: Der Musikant
!!!ODT: 1888/09/22
!!!LYR: Joseph von Eichendorff
!!!ENC: Brian Bice
!!!YOR: 45 Songs on Poems of Goethe and Eichendorff, Dover Publications, 1995
!!NB: Vocal melody and text only encoded.
**kern	**silbe
*clefG2	*
*k[f#c#g#]	*
*M2/4	*
=5	=5
{8cc#	{Wan-
8a	-dern
8.e	lieb'
16e	ich
=6	=6
8e	fu2r
8cc#	mein
8.b	Le-
16g#	-ben,
=7	=7
8f#	le-
8dd	-be
8.cc#	e-
16ee	-ben,
=8	=8
8cc#	wie
8a	ich
4b}	kann,}
=9	=9
{8cc#	{wollt'
8a	ich
8.e	mir
16e	auch
=10	=10
8e	Mu2-
8cc#	-he
8.b	ge-
16g#	-ben,
=11	=11
8f#	passt
8dd	es
8.cc#	mir
16ee	doch
=12	=12
8cc#	gar
8b	nicht
4a}	an.}
=17	=17
{8b	{Scho2-
8b	-ne
8.b	al-
16b	-te
=18	=18
8b	Lie-
8b	-der
8.cc#	weiss
16dd#	ich,
=19	=19
8b	in
8cc#	der
8.dd#	Ka2l-
16ee	-te,
=20	=20
8dd#	oh-
8dd#	-ne
4dd#}	Schuh',}
=21	=21
{8b	{drau-
8b	-ssen
8.b	in
16b	die
=22	=22
8b	Sai-
8b	-ten
8.cc#	reiss'
16dd#	ich,
=23	=23
8b	weiss
8ee	nicht,
8.dd#	wo
16d#	ich
=24	=24
8d#	a-
8d#	-bends
4d#}	ruh'!}
=29	=29
{8cc#	{Man-
8a	-che
8.e	Scho2-
16e	-ne
=30	=30
8e	macht
8cc#	wohl
8.b	Au-
16g#	-gen,
=31	=31
8f#	mei-
16dd#	-net,
16r	.
8.cc#	ich
16ee	ge-
=32	=32
8cc#	-fiel'
8a	ihr
4b}	sehr,}
=33	=33
{8cc#	{wenn
8a	ich
8.e	nur
16e	was
=34	=34
8e	woll-
8cc#	-te
8.b	tau-
16g#	-gen,
=35	=35
8f#	so
8dd	ein
8.cc#	ar-
16ee	-mer
=36	=36
8cc#	Lump
8b	nicht
4a}	wa2r'.}
=41	=41
{8b	{Mag
8b	dir
8.cc#	Gott
16dd#	win'n
=42	=42
8b	Mann
8b	be-
8.cc#	-sche-
16dd#	-ren,
=43	=43
8b	wohl
8cc#	mit
8.dd#	Haus
16g#	und
=44	=44
8f##	Hof
8a#	ver-
4g#}	-seh'n!}
=45	=45
{8cc#	{Wenn
8a	wir
8.e	zwei
16e	zu-
=46	=46
8e	-sam-
8cc#	-men
8.b	wa2-
16g#	-ren,
=47	=47
8f#	mo2cht'
8dd#	mein
8.cc#	Sin-
16ee	-gen
=48	=48
8cc#	mir
8b	ver-
4a}	geh'n.}
*-	*-
